2023/01_create_ocio_config_for_PS_AF/luts/Gamma_2.4_to_Linear.spi1d
Version 1
From 0.000000 1.000000
Length 4096
Components 1
{
         0.0000000000e+00
         2.1408716215e-09
         1.1299588162e-08
         2.9900719351e-08
         5.9639583872e-08
         1.0188696736e-07
         1.5781694288e-07
         2.2846828486e-07
         3.1477961086e-07
         4.1761169083e-07
         5.3776263775e-07
         6.7597879052e-07
         8.3296281836e-07
         1.0093799433e-06
         1.2058628369e-06
         1.4230155541e-06
         1.6614167467e-06
         1.9216223296e-06
         2.2041677187e-06
         2.5095697318e-06
         2.8383282185e-06
         3.1909274698e-06
         3.5678374464e-06
         3.9695148576e-06
         4.3964041128e-06
         4.8489381681e-06
         5.3275392805e-06
         5.8326196863e-06
         6.3645822106e-06
         6.9238208198e-06
         7.5107211230e-06
         8.1256608284e-06
         8.7690101615e-06
         9.4411322471e-06
         1.0142383462e-05
         1.0873113759e-05
         1.1633666966e-05
         1.2424381067e-05
         1.3245588455e-05
         1.4097616176e-05
         1.4980786151e-05
         1.5895415383e-05
         1.6841816156e-05
         1.7820296215e-05
         1.8831158939e-05
         1.9874703503e-05
         2.0951225026e-05
         2.2061014721e-05
         2.3204360023e-05
         2.4381544724e-05
         2.5592849086e-05
         2.6838549963e-05
         2.8118920902e-05
         2.9434232255e-05
         3.0784751266e-05
         3.2170742176e-05
         3.3592466302e-05
         3.5050182127e-05
         3.6544145378e-05
         3.8074609104e-05
         3.9641823749e-05
         4.1246037225e-05
         4.2887494974e-05
         4.4566440036e-05
         4.6283113111e-05
         4.8037752617e-05
         4.9830594747e-05
         5.1661873522e-05
         5.3531820848e-05
         5.5440666561e-05
         5.7388638477e-05
         5.9375962442e-05
         6.1402862373e-05
         6.3469560301e-05
         6.5576276417e-05
         6.7723229109e-05
         6.9910634998e-05
         7.2138708983e-05
         7.4407664271e-05
         7.6717712414e-05
         7.9069063343e-05
         8.1461925401e-05
         8.3896505372e-05
         8.6373008518e-05
         8.8891638600e-05
         9.1452597913e-05
         9.4056087314e-05
         9.6702306244e-05
         9.9391452759e-05
         1.0212372355e-04
         1.0489931398e-04
         1.0771841810e-04
         1.1058122865e-04
         1.1348793713e-04
         1.1643873377e-04
         1.1943380761e-04
         1.2247334646e-04
         1.2555753695e-04
         1.2868656456e-04
         1.3186061361e-04
         1.3507986731e-04
         1.3834450776e-04
         1.4165471596e-04
         1.4501067184e-04
         1.4841255429e-04
         1.5186054115e-04
         1.5535480923e-04
         1.5889553434e-04
         1.6248289131e-04
         1.6611705396e-04
         1.6979819519e-04
         1.7352648691e-04
         1.7730210011e-04
         1.8112520488e-04
         1.8499597036e-04
         1.8891456483e-04
         1.9288115567e-04
         1.9689590939e-04
         2.0095899165e-04
         2.0507056724e-04
         2.0923080014e-04
         2.1343985349e-04
         2.1769788963e-04
         2.2200507007e-04
         2.2636155556e-04
         2.3076750606e-04
         2.3522308073e-04
         2.3972843800e-04
         2.4428373554e-04
         2.4888913027e-04
         2.5354477838e-04
         2.5825083533e-04
         2.6300745587e-04
         2.6781479404e-04
         2.7267300319e-04
         2.7758223597e-04
         2.8254264435e-04
         2.8755437962e-04
         2.9261759242e-04
         2.9773243272e-04
         3.0289904984e-04
         3.0811759245e-04
         3.1338820861e-04
         3.1871104572e-04
         3.2408625058e-04
         3.2951396936e-04
         3.3499434764e-04
         3.4052753039e-04
         3.4611366197e-04
         3.5175288617e-04
         3.5744534621e-04
         3.6319118470e-04
         3.6899054371e-04
         3.7484356473e-04
         3.8075038871e-04
         3.8671115602e-04
         3.9272600651e-04
         3.9879507949e-04
         4.0491851371e-04
         4.1109644741e-04
         4.1732901831e-04
         4.2361636361e-04
         4.2995861997e-04
         4.3635592358e-04
         4.4280841010e-04
         4.4931621470e-04
         4.5587947207e-04
         4.6249831637e-04
         4.6917288134e-04
         4.7590330017e-04
         4.8268970563e-04
         4.8953222999e-04
         4.9643100507e-04
         5.0338616221e-04
         5.1039783232e-04
         5.1746614582e-04
         5.2459123271e-04
         5.3177322255e-04
         5.3901224442e-04
         5.4630842701e-04
         5.5366189855e-04
         5.6107278684e-04
         5.6854121926e-04
         5.7606732278e-04
         5.8365122394e-04
         5.9129304886e-04
         5.9899292326e-04
         6.0675097245e-04
         6.1456732134e-04
         6.2244209443e-04
         6.3037541584e-04
         6.3836740927e-04
         6.4641819805e-04
         6.5452790513e-04
         6.6269665306e-04
         6.7092456402e-04
         6.7921175979e-04
         6.8755836181e-04
         6.9596449113e-04
         7.0443026843e-04
         7.1295581403e-04
         7.2154124789e-04
         7.3018668961e-04
         7.3889225842e-04
         7.4765807322e-04
         7.5648425254e-04
         7.6537091457e-04
         7.7431817715e-04
         7.8332615779e-04
         7.9239497364e-04
         8.0152474152e-04
         8.1071557793e-04
         8.1996759902e-04
         8.2928092061e-04
         8.3865565821e-04
         8.4809192699e-04
         8.5758984179e-04
         8.6714951715e-04
         8.7677106728e-04
         8.8645460609e-04
         8.9620024714e-04
         9.0600810373e-04
         9.1587828881e-04
         9.2581091504e-04
         9.3580609479e-04
         9.4586394009e-04
         9.5598456271e-04
         9.6616807410e-04
         9.7641458542e-04
         9.8672420754e-04
         9.9709705104e-04
         1.0075332262e-03
         1.0180328430e-03
         1.0285960112e-03
         1.0392228402e-03
         1.0499134391e-03
         1.0606679169e-03
         1.0714863821e-03
         1.0823689430e-03
         1.0933157076e-03
         1.1043267838e-03
         1.1154022791e-03
         1.1265423006e-03
         1.1377469554e-03
         1.1490163501e-03
         1.1603505911e-03
         1.1717497848e-03
         1.1832140368e-03
         1.1947434530e-03
         1.2063381388e-03
         1.2179981992e-03
         1.2297237391e-03
         1.2415148633e-03
         1.2533716760e-03
         1.2652942815e-03
         1.2772827837e-03
         1.2893372861e-03
         1.3014578922e-03
         1.3136447052e-03
         1.3258978280e-03
         1.3382173632e-03
         1.3506034134e-03
         1.3630560807e-03
         1.3755754671e-03
         1.3881616744e-03
         1.4008148041e-03
         1.4135349574e-03
         1.4263222355e-03
         1.4391767391e-03
         1.4520985688e-03
         1.4650878250e-03
         1.4781446079e-03
         1.4912690174e-03
         1.5044611532e-03
         1.5177211148e-03
         1.5310490014e-03
         1.5444449121e-03
         1.5579089458e-03
         1.5714412011e-03
         1.5850417763e-03
         1.5987107697e-03
         1.6124482793e-03
         1.6262544028e-03
         1.6401292377e-03
         1.6540728816e-03
         1.6680854315e-03
         1.6821669843e-03
         1.6963176369e-03
         1.7105374856e-03
         1.7248266270e-03
         1.7391851571e-03
         1.7536131719e-03
         1.7681107671e-03
         1.7826780383e-03
         1.7973150807e-03
         1.8120219896e-03
         1.8267988600e-03
         1.8416457865e-03
         1.8565628638e-03
         1.8715501862e-03
         1.8866078480e-03
         1.9017359431e-03
         1.9169345653e-03
         1.9322038084e-03
         1.9475437657e-03
         1.9629545305e-03
         1.9784361959e-03
         1.9939888547e-03
         2.0096125997e-03
         2.0253075234e-03
         2.0410737182e-03
         2.0569112762e-03
         2.0728202894e-03
         2.0888008497e-03
         2.1048530486e-03
         2.1209769777e-03
         2.1371727282e-03
         2.1534403913e-03
         2.1697800578e-03
         2.1861918186e-03
         2.2026757642e-03
         2.2192319852e-03
         2.2358605717e-03
         2.2525616138e-03
         2.2693352014e-03
         2.2861814244e-03
         2.3031003723e-03
         2.3200921345e-03
         2.3371568003e-03
         2.3542944588e-03
         2.3715051990e-03
         2.3887891095e-03
         2.4061462790e-03
         2.4235767960e-03
         2.4410807487e-03
         2.4586582253e-03
         2.4763093138e-03
         2.4940341019e-03
         2.5118326773e-03
         2.5297051276e-03
         2.5476515401e-03
         2.5656720019e-03
         2.5837666002e-03
         2.6019354218e-03
         2.6201785534e-03
         2.6384960816e-03
         2.6568880928e-03
         2.6753546735e-03
         2.6938959095e-03
         2.7125118870e-03
         2.7312026919e-03
         2.7499684096e-03
         2.7688091260e-03
         2.7877249262e-03
         2.8067158955e-03
         2.8257821192e-03
         2.8449236821e-03
         2.8641406690e-03
         2.8834331647e-03
         2.9028012536e-03
         2.9222450201e-03
         2.9417645485e-03
         2.9613599230e-03
         2.9810312274e-03
         3.0007785457e-03
         3.0206019614e-03
         3.0405015582e-03
         3.0604774195e-03
         3.0805296285e-03
         3.1006582684e-03
         3.1208634222e-03
         3.1411451728e-03
         3.1615036029e-03
         3.1819387952e-03
         3.2024508321e-03
         3.2230397959e-03
         3.2437057688e-03
         3.2644488330e-03
         3.2852690704e-03
         3.3061665628e-03
         3.3271413918e-03
         3.3481936391e-03
         3.3693233860e-03
         3.3905307139e-03
         3.4118157040e-03
         3.4331784372e-03
         3.4546189946e-03
         3.4761374568e-03
         3.4977339046e-03
         3.5194084186e-03
         3.5411610790e-03
         3.5629919663e-03
         3.5849011605e-03
         3.6068887418e-03
         3.6289547901e-03
         3.6510993852e-03
         3.6733226067e-03
         3.6956245342e-03
         3.7180052471e-03
         3.7404648249e-03
         3.7630033466e-03
         3.7856208914e-03
         3.8083175382e-03
         3.8310933659e-03
         3.8539484531e-03
         3.8768828786e-03
         3.8998967208e-03
         3.9229900581e-03
         3.9461629687e-03
         3.9694155308e-03
         3.9927478224e-03
         4.0161599215e-03
         4.0396519058e-03
         4.0632238531e-03
         4.0868758408e-03
         4.1106079466e-03
         4.1344202477e-03
         4.1583128213e-03
         4.1822857447e-03
         4.2063390948e-03
         4.2304729485e-03
         4.2546873826e-03
         4.2789824739e-03
         4.3033582988e-03
         4.3278149339e-03
         4.3523524556e-03
         4.3769709400e-03
         4.4016704634e-03
         4.4264511017e-03
         4.4513129309e-03
         4.4762560269e-03
         4.5012804653e-03
         4.5263863218e-03
         4.5515736718e-03
         4.5768425908e-03
         4.6021931541e-03
         4.6276254369e-03
         4.6531395142e-03
         4.6787354611e-03
         4.7044133524e-03
         4.7301732630e-03
         4.7560152674e-03
         4.7819394404e-03
         4.8079458563e-03
         4.8340345896e-03
         4.8602057144e-03
         4.8864593051e-03
         4.9127954357e-03
         4.9392141801e-03
         4.9657156122e-03
         4.9922998059e-03
         5.0189668347e-03
         5.0457167723e-03
         5.0725496921e-03
         5.0994656676e-03
         5.1264647721e-03
         5.1535470786e-03
         5.1807126604e-03
         5.2079615904e-03
         5.2352939415e-03
         5.2627097866e-03
         5.2902091983e-03
         5.3177922493e-03
         5.3454590121e-03
         5.3732095591e-03
         5.4010439627e-03
         5.4289622950e-03
         5.4569646284e-03
         5.4850510347e-03
         5.5132215860e-03
         5.5414763542e-03
         5.5698154110e-03
         5.5982388281e-03
         5.6267466772e-03
         5.6553390296e-03
         5.6840159569e-03
         5.7127775304e-03
         5.7416238213e-03
         5.7705549008e-03
         5.7995708398e-03
         5.8286717094e-03
         5.8578575805e-03
         5.8871285238e-03
         5.9164846101e-03
         5.9459259100e-03
         5.9754524939e-03
         6.0050644323e-03
         6.0347617957e-03
         6.0645446541e-03
         6.0944130779e-03
         6.1243671371e-03
         6.1544069018e-03
         6.1845324418e-03
         6.2147438269e-03
         6.2450411270e-03
         6.2754244117e-03
         6.3058937505e-03
         6.3364492131e-03
         6.3670908687e-03
         6.3978187867e-03
         6.4286330364e-03
         6.4595336869e-03
         6.4905208073e-03
         6.5215944666e-03
         6.5527547337e-03
         6.5840016775e-03
         6.6153353666e-03
         6.6467558698e-03
         6.6782632557e-03
         6.7098575927e-03
         6.7415389493e-03
         6.7733073938e-03
         6.8051629945e-03
         6.8371058196e-03
         6.8691359372e-03
         6.9012534152e-03
         6.9334583217e-03
         6.9657507245e-03
         6.9981306915e-03
         7.0305982902e-03
         7.0631535884e-03
         7.0957966535e-03
         7.1285275531e-03
         7.1613463546e-03
         7.1942531253e-03
         7.2272479324e-03
         7.2603308430e-03
         7.2935019244e-03
         7.3267612434e-03
         7.3601088671e-03
         7.3935448622e-03
         7.4270692956e-03
         7.4606822340e-03
         7.4943837440e-03
         7.5281738921e-03
         7.5620527449e-03
         7.5960203688e-03
         7.6300768300e-03
         7.6642221949e-03
         7.6984565297e-03
         7.7327799003e-03
         7.7671923730e-03
         7.8016940136e-03
         7.8362848881e-03
         7.8709650622e-03
         7.9057346017e-03
         7.9405935723e-03
         7.9755420396e-03
         8.0105800691e-03
         8.0457077262e-03
         8.0809250764e-03
         8.1162321850e-03
         8.1516291172e-03
         8.1871159382e-03
         8.2226927130e-03
         8.2583595068e-03
         8.2941163845e-03
         8.3299634109e-03
         8.3659006509e-03
         8.4019281692e-03
         8.4380460306e-03
         8.4742542996e-03
         8.5105530408e-03
         8.5469423186e-03
         8.5834221974e-03
         8.6199927417e-03
         8.6566540156e-03
         8.6934060834e-03
         8.7302490091e-03
         8.7671828569e-03
         8.8042076907e-03
         8.8413235745e-03
         8.8785305722e-03
         8.9158287474e-03
         8.9532181641e-03
         8.9906988857e-03
         9.0282709759e-03
         9.0659344983e-03
         9.1036895163e-03
         9.1415360933e-03
         9.1794742926e-03
         9.2175041775e-03
         9.2556258112e-03
         9.2938392567e-03
         9.3321445773e-03
         9.3705418359e-03
         9.4090310954e-03
         9.4476124187e-03
         9.4862858687e-03
         9.5250515079e-03
         9.5639093993e-03
         9.6028596053e-03
         9.6419021885e-03
         9.6810372114e-03
         9.7202647365e-03
         9.7595848260e-03
         9.7989975424e-03
         9.8385029478e-03
         9.8781011044e-03
         9.9177920743e-03
         9.9575759196e-03
         9.9974527023e-03
         1.0037422484e-02
         1.0077485327e-02
         1.0117641294e-02
         1.0157890444e-02
         1.0198232842e-02
         1.0238668547e-02
         1.0279197622e-02
         1.0319820128e-02
         1.0360536126e-02
         1.0401345678e-02
         1.0442248846e-02
         1.0483245689e-02
         1.0524336271e-02
         1.0565520651e-02
         1.0606798892e-02
         1.0648171053e-02
         1.0689637196e-02
         1.0731197381e-02
         1.0772851671e-02
         1.0814600124e-02
         1.0856442803e-02
         1.0898379767e-02
         1.0940411078e-02
         1.0982536796e-02
         1.1024756981e-02
         1.1067071694e-02
         1.1109480995e-02
         1.1151984944e-02
         1.1194583603e-02
         1.1237277030e-02
         1.1280065286e-02
         1.1322948432e-02
         1.1365926527e-02
         1.1408999631e-02
         1.1452167804e-02
         1.1495431106e-02
         1.1538789596e-02
         1.1582243336e-02
         1.1625792383e-02
         1.1669436798e-02
         1.1713176641e-02
         1.1757011971e-02
         1.1800942847e-02
         1.1844969329e-02
         1.1889091475e-02
         1.1933309347e-02
         1.1977623002e-02
         1.2022032500e-02
         1.2066537900e-02
         1.2111139261e-02
         1.2155836642e-02
         1.2200630103e-02
         1.2245519701e-02
         1.2290505496e-02
         1.2335587547e-02
         1.2380765912e-02
         1.2426040651e-02
         1.2471411821e-02
         1.2516879482e-02
         1.2562443691e-02
         1.2608104508e-02
         1.2653861991e-02
         1.2699716198e-02
         1.2745667188e-02
         1.2791715019e-02
         1.2837859748e-02
         1.2884101435e-02
         1.2930440137e-02
         1.2976875913e-02
         1.3023408820e-02
         1.3070038916e-02
         1.3116766260e-02
         1.3163590909e-02
         1.3210512921e-02
         1.3257532353e-02
         1.3304649264e-02
         1.3351863711e-02
         1.3399175752e-02
         1.3446585444e-02
         1.3494092845e-02
         1.3541698012e-02
         1.3589401003e-02
         1.3637201874e-02
         1.3685100684e-02
         1.3733097489e-02
         1.3781192347e-02
         1.3829385315e-02
         1.3877676450e-02
         1.3926065809e-02
         1.3974553449e-02
         1.4023139426e-02
         1.4071823799e-02
         1.4120606623e-02
         1.4169487956e-02
         1.4218467854e-02
         1.4267546374e-02
         1.4316723572e-02
         1.4365999506e-02
         1.4415374231e-02
         1.4464847805e-02
         1.4514420284e-02
         1.4564091723e-02
         1.4613862180e-02
         1.4663731711e-02
         1.4713700373e-02
         1.4763768220e-02
         1.4813935310e-02
         1.4864201698e-02
         1.4914567442e-02
         1.4965032596e-02
         1.5015597216e-02
         1.5066261359e-02
         1.5117025081e-02
         1.5167888437e-02
         1.5218851484e-02
         1.5269914276e-02
         1.5321076870e-02
         1.5372339321e-02
         1.5423701685e-02
         1.5475164017e-02
         1.5526726374e-02
         1.5578388810e-02
         1.5630151380e-02
         1.5682014141e-02
         1.5733977147e-02
         1.5786040455e-02
         1.5838204118e-02
         1.5890468192e-02
         1.5942832733e-02
         1.5995297796e-02
         1.6047863435e-02
         1.6100529706e-02
         1.6153296663e-02
         1.6206164362e-02
         1.6259132857e-02
         1.6312202203e-02
         1.6365372455e-02
         1.6418643668e-02
         1.6472015896e-02
         1.6525489195e-02
         1.6579063618e-02
         1.6632739220e-02
         1.6686516056e-02
         1.6740394180e-02
         1.6794373647e-02
         1.6848454512e-02
         1.6902636827e-02
         1.6956920648e-02
         1.7011306030e-02
         1.7065793025e-02
         1.7120381689e-02
         1.7175072075e-02
         1.7229864238e-02
         1.7284758232e-02
         1.7339754110e-02
         1.7394851926e-02
         1.7450051736e-02
         1.7505353591e-02
         1.7560757547e-02
         1.7616263657e-02
         1.7671871974e-02
         1.7727582553e-02
         1.7783395447e-02
         1.7839310710e-02
         1.7895328395e-02
         1.7951448556e-02
         1.8007671246e-02
         1.8063996519e-02
         1.8120424428e-02
         1.8176955027e-02
         1.8233588368e-02
         1.8290324506e-02
         1.8347163493e-02
         1.8404105382e-02
         1.8461150228e-02
         1.8518298082e-02
         1.8575548998e-02
         1.8632903029e-02
         1.8690360228e-02
         1.8747920648e-02
         1.8805584342e-02
         1.8863351363e-02
         1.8921221763e-02
         1.8979195595e-02
         1.9037272913e-02
         1.9095453768e-02
         1.9153738214e-02
         1.9212126302e-02
         1.9270618087e-02
         1.9329213620e-02
         1.9387912953e-02
         1.9446716140e-02
         1.9505623232e-02
         1.9564634283e-02
         1.9623749344e-02
         1.9682968467e-02
         1.9742291706e-02
         1.9801719111e-02
         1.9861250736e-02
         1.9920886633e-02
         1.9980626853e-02
         2.0040471450e-02
         2.0100420473e-02
         2.0160473977e-02
         2.0220632013e-02
         2.0280894632e-02
         2.0341261886e-02
         2.0401733829e-02
         2.0462310510e-02
         2.0522991982e-02
         2.0583778297e-02
         2.0644669507e-02
         2.0705665662e-02
         2.0766766815e-02
         2.0827973017e-02
         2.0889284321e-02
         2.0950700776e-02
         2.1012222435e-02
         2.1073849350e-02
         2.1135581570e-02
         2.1197419149e-02
         2.1259362137e-02
         2.1321410586e-02
         2.1383564546e-02
         2.1445824069e-02
         2.1508189207e-02
         2.1570660009e-02
         2.1633236528e-02
         2.1695918814e-02
         2.1758706919e-02
         2.1821600893e-02
         2.1884600787e-02
         2.1947706653e-02
         2.2010918540e-02
         2.2074236501e-02
         2.2137660585e-02
         2.2201190844e-02
         2.2264827328e-02
         2.2328570087e-02
         2.2392419174e-02
         2.2456374637e-02
         2.2520436528e-02
         2.2584604897e-02
         2.2648879795e-02
         2.2713261273e-02
         2.2777749380e-02
         2.2842344167e-02
         2.2907045684e-02
         2.2971853982e-02
         2.3036769112e-02
         2.3101791122e-02
         2.3166920064e-02
         2.3232155988e-02
         2.3297498944e-02
         2.3362948981e-02
         2.3428506151e-02
         2.3494170503e-02
         2.3559942087e-02
         2.3625820952e-02
         2.3691807150e-02
         2.3757900730e-02
         2.3824101742e-02
         2.3890410235e-02
         2.3956826260e-02
         2.4023349866e-02
         2.4089981102e-02
         2.4156720020e-02
         2.4223566667e-02
         2.4290521095e-02
         2.4357583352e-02
         2.4424753488e-02
         2.4492031553e-02
         2.4559417596e-02
         2.4626911666e-02
         2.4694513813e-02
         2.4762224087e-02
         2.4830042536e-02
         2.4897969211e-02
         2.4966004159e-02
         2.5034147432e-02
         2.5102399077e-02
         2.5170759144e-02
         2.5239227682e-02
         2.5307804740e-02
