2023/01_create_ocio_config_for_PS_AF/luts/SMPTE_ST2084_to_Linear.spi1d
Version 1
From 0.000000 1.000000
Length 4096
Components 1
{
         0.0000000000e+00
         3.6848776409e-08
         1.2368392856e-07
         2.4757303642e-07
         4.0372471719e-07
         5.8947394799e-07
         8.0310153858e-07
         1.0434054454e-06
         1.3095018321e-06
         1.6007185245e-06
         1.9165322001e-06
         2.2565286976e-06
         2.6203765770e-06
         3.0078087603e-06
         3.4186093460e-06
         3.8526038721e-06
         4.3096519573e-06
         4.7896416250e-06
         5.2924848508e-06
         5.8181140172e-06
         6.3664790510e-06
         6.9375450872e-06
         7.5312905407e-06
         8.1477055001e-06
         8.7867903789e-06
         9.4485547731e-06
         1.0133016487e-05
         1.0840200699e-05
         1.1570139238e-05
         1.2322869960e-05
         1.3098436200e-05
         1.3896886295e-05
         1.4718273163e-05
         1.5562653927e-05
         1.6430089589e-05
         1.7320644736e-05
         1.8234387274e-05
         1.9171388195e-05
         2.0131721363e-05
         2.1115463329e-05
         2.2122693151e-05
         2.3153492244e-05
         2.4207944236e-05
         2.5286134837e-05
         2.6388151726e-05
         2.7514084440e-05
         2.8664024276e-05
         2.9838064203e-05
         3.1036298775e-05
         3.2258824060e-05
         3.3505737564e-05
         3.4777138170e-05
         3.6073126076e-05
         3.7393802743e-05
         3.8739270836e-05
         4.0109634186e-05
         4.1504997735e-05
         4.2925467504e-05
         4.4371150549e-05
         4.5842154927e-05
         4.7338589662e-05
         4.8860564713e-05
         5.0408190946e-05
         5.1981580106e-05
         5.3580844793e-05
         5.5206098434e-05
         5.6857455264e-05
         5.8535030302e-05
         6.0238939336e-05
         6.1969298897e-05
         6.3726226248e-05
         6.5509839364e-05
         6.7320256916e-05
         6.9157598259e-05
         7.1021983414e-05
         7.2913533061e-05
         7.4832368519e-05
         7.6778611741e-05
         7.8752385298e-05
         8.0753812373e-05
         8.2783016746e-05
         8.4840122791e-05
         8.6925255460e-05
         8.9038540281e-05
         9.1180103345e-05
         9.3350071303e-05
         9.5548571356e-05
         9.7775731247e-05
         1.0003167926e-04
         1.0231654421e-04
         1.0463045542e-04
         1.0697354278e-04
         1.0934593664e-04
         1.1174776789e-04
         1.1417916792e-04
         1.1664026863e-04
         1.1913120239e-04
         1.2165210210e-04
         1.2420310112e-04
         1.2678433330e-04
         1.2939593299e-04
         1.3203803500e-04
         1.3471077462e-04
         1.3741428761e-04
         1.4014871023e-04
         1.4291417915e-04
         1.4571083156e-04
         1.4853880509e-04
         1.5139823782e-04
         1.5428926830e-04
         1.5721203555e-04
         1.6016667903e-04
         1.6315333864e-04
         1.6617215476e-04
         1.6922326819e-04
         1.7230682021e-04
         1.7542295252e-04
         1.7857180727e-04
         1.8175352708e-04
         1.8496825498e-04
         1.8821613445e-04
         1.9149730943e-04
         1.9481192428e-04
         1.9816012381e-04
         2.0154205326e-04
         2.0495785831e-04
         2.0840768508e-04
         2.1189168014e-04
         2.1540999046e-04
         2.1896276348e-04
         2.2255014706e-04
         2.2617228949e-04
         2.2982933951e-04
         2.3352144628e-04
         2.3724875940e-04
         2.4101142890e-04
         2.4480960524e-04
         2.4864343931e-04
         2.5251308245e-04
         2.5641868642e-04
         2.6036040342e-04
         2.6433838605e-04
         2.6835278740e-04
         2.7240376094e-04
         2.7649146061e-04
         2.8061604075e-04
         2.8477765615e-04
         2.8897646204e-04
         2.9321261408e-04
         2.9748626833e-04
         3.0179758134e-04
         3.0614671005e-04
         3.1053381184e-04
         3.1495904455e-04
         3.1942256643e-04
         3.2392453616e-04
         3.2846511288e-04
         3.3304445614e-04
         3.3766272594e-04
         3.4232008272e-04
         3.4701668735e-04
         3.5175270112e-04
         3.5652828579e-04
         3.6134360354e-04
         3.6619881698e-04
         3.7109408919e-04
         3.7602958364e-04
         3.8100546429e-04
         3.8602189552e-04
         3.9107904213e-04
         3.9617706940e-04
         4.0131614302e-04
         4.0649642915e-04
         4.1171809437e-04
         4.1698130572e-04
         4.2228623067e-04
         4.2763303714e-04
         4.3302189352e-04
         4.3845296860e-04
         4.4392643166e-04
         4.4944245240e-04
         4.5500120098e-04
         4.6060284802e-04
         4.6624756456e-04
         4.7193552213e-04
         4.7766689267e-04
         4.8344184861e-04
         4.8926056280e-04
         4.9512320856e-04
         5.0102995968e-04
         5.0698099037e-04
         5.1297647533e-04
         5.1901658968e-04
         5.2510150904e-04
         5.3123140946e-04
         5.3740646745e-04
         5.4362686000e-04
         5.4989276453e-04
         5.5620435895e-04
         5.6256182162e-04
         5.6896533136e-04
         5.7541506746e-04
         5.8191120967e-04
         5.8845393822e-04
         5.9504343379e-04
         6.0167987753e-04
         6.0836345107e-04
         6.1509433650e-04
         6.2187271638e-04
         6.2869877374e-04
         6.3557269209e-04
         6.4249465541e-04
         6.4946484815e-04
         6.5648345524e-04
         6.6355066208e-04
         6.7066665454e-04
         6.7783161900e-04
         6.8504574228e-04
         6.9230921170e-04
         6.9962221506e-04
         7.0698494063e-04
         7.1439757717e-04
         7.2186031394e-04
         7.2937334064e-04
         7.3693684751e-04
         7.4455102524e-04
         7.5221606501e-04
         7.5993215850e-04
         7.6769949788e-04
         7.7551827580e-04
         7.8338868540e-04
         7.9131092033e-04
         7.9928517472e-04
         8.0731164319e-04
         8.1539052087e-04
         8.2352200337e-04
         8.3170628681e-04
         8.3994356781e-04
         8.4823404347e-04
         8.5657791141e-04
         8.6497536975e-04
         8.7342661711e-04
         8.8193185260e-04
         8.9049127586e-04
         8.9910508702e-04
         9.0777348671e-04
         9.1649667609e-04
         9.2527485681e-04
         9.3410823103e-04
         9.4299700145e-04
         9.5194137124e-04
         9.6094154410e-04
         9.6999772427e-04
         9.7911011647e-04
         9.8827892595e-04
         9.9750435847e-04
         1.0067866203e-03
         1.0161259183e-03
         1.0255224598e-03
         1.0349764526e-03
         1.0444881051e-03
         1.0540576262e-03
         1.0636852253e-03
         1.0733711123e-03
         1.0831154978e-03
         1.0929185928e-03
         1.1027806087e-03
         1.1127017577e-03
         1.1226822523e-03
         1.1327223057e-03
         1.1428221316e-03
         1.1529819441e-03
         1.1632019581e-03
         1.1734823887e-03
         1.1838234518e-03
         1.1942253637e-03
         1.2046883414e-03
         1.2152126023e-03
         1.2257983644e-03
         1.2364458462e-03
         1.2471552668e-03
         1.2579268459e-03
         1.2687608035e-03
         1.2796573604e-03
         1.2906167380e-03
         1.3016391579e-03
         1.3127248427e-03
         1.3238740152e-03
         1.3350868990e-03
         1.3463637180e-03
         1.3577046969e-03
         1.3691100609e-03
         1.3805800357e-03
         1.3921148475e-03
         1.4037147233e-03
         1.4153798904e-03
         1.4271105768e-03
         1.4389070112e-03
         1.4507694225e-03
         1.4626980405e-03
         1.4746930954e-03
         1.4867548181e-03
         1.4988834400e-03
         1.5110791930e-03
         1.5233423098e-03
         1.5356730233e-03
         1.5480715674e-03
         1.5605381763e-03
         1.5730730850e-03
         1.5856765287e-03
         1.5983487436e-03
         1.6110899664e-03
         1.6239004341e-03
         1.6367803846e-03
         1.6497300563e-03
         1.6627496880e-03
         1.6758395195e-03
         1.6889997909e-03
         1.7022307428e-03
         1.7155326166e-03
         1.7289056543e-03
         1.7423500983e-03
         1.7558661919e-03
         1.7694541788e-03
         1.7831143032e-03
         1.7968468101e-03
         1.8106519451e-03
         1.8245299543e-03
         1.8384810845e-03
         1.8525055829e-03
         1.8666036976e-03
         1.8807756772e-03
         1.8950217709e-03
         1.9093422283e-03
         1.9237373001e-03
         1.9382072371e-03
         1.9527522911e-03
         1.9673727143e-03
         1.9820687596e-03
         1.9968406806e-03
         2.0116887313e-03
         2.0266131665e-03
         2.0416142416e-03
         2.0566922126e-03
         2.0718473362e-03
         2.0870798695e-03
         2.1023900706e-03
         2.1177781979e-03
         2.1332445106e-03
         2.1487892686e-03
         2.1644127321e-03
         2.1801151624e-03
         2.1958968211e-03
         2.2117579706e-03
         2.2276988739e-03
         2.2437197946e-03
         2.2598209970e-03
         2.2760027460e-03
         2.2922653073e-03
         2.3086089470e-03
         2.3250339320e-03
         2.3415405298e-03
         2.3581290087e-03
         2.3747996374e-03
         2.3915526855e-03
         2.4083884232e-03
         2.4253071211e-03
         2.4423090509e-03
         2.4593944845e-03
         2.4765636949e-03
         2.4938169555e-03
         2.5111545405e-03
         2.5285767245e-03
         2.5460837831e-03
         2.5636759924e-03
         2.5813536293e-03
         2.5991169711e-03
         2.6169662962e-03
         2.6349018832e-03
         2.6529240118e-03
         2.6710329620e-03
         2.6892290148e-03
         2.7075124518e-03
         2.7258835551e-03
         2.7443426077e-03
         2.7628898933e-03
         2.7815256960e-03
         2.8002503009e-03
         2.8190639937e-03
         2.8379670608e-03
         2.8569597892e-03
         2.8760424667e-03
         2.8952153818e-03
         2.9144788235e-03
         2.9338330819e-03
         2.9532784474e-03
         2.9728152113e-03
         2.9924436656e-03
         3.0121641030e-03
         3.0319768168e-03
         3.0518821012e-03
         3.0718802510e-03
         3.0919715617e-03
         3.1121563295e-03
         3.1324348514e-03
         3.1528074250e-03
         3.1732743489e-03
         3.1938359219e-03
         3.2144924441e-03
         3.2352442160e-03
         3.2560915388e-03
         3.2770347145e-03
         3.2980740460e-03
         3.3192098366e-03
         3.3404423905e-03
         3.3617720128e-03
         3.3831990091e-03
         3.4047236857e-03
         3.4263463499e-03
         3.4480673095e-03
         3.4698868731e-03
         3.4918053501e-03
         3.5138230507e-03
         3.5359402857e-03
         3.5581573666e-03
         3.5804746059e-03
         3.6028923167e-03
         3.6254108128e-03
         3.6480304088e-03
         3.6707514202e-03
         3.6935741630e-03
         3.7164989542e-03
         3.7395261113e-03
         3.7626559529e-03
         3.7858887981e-03
         3.8092249668e-03
         3.8326647797e-03
         3.8562085584e-03
         3.8798566250e-03
         3.9036093027e-03
         3.9274669152e-03
         3.9514297870e-03
         3.9754982437e-03
         3.9996726111e-03
         4.0239532164e-03
         4.0483403872e-03
         4.0728344519e-03
         4.0974357399e-03
         4.1221445812e-03
         4.1469613066e-03
         4.1718862478e-03
         4.1969197372e-03
         4.2220621081e-03
         4.2473136944e-03
         4.2726748310e-03
         4.2981458536e-03
         4.3237270984e-03
         4.3494189028e-03
         4.3752216048e-03
         4.4011355433e-03
         4.4271610578e-03
         4.4532984888e-03
         4.4795481777e-03
         4.5059104664e-03
         4.5323856979e-03
         4.5589742160e-03
         4.5856763651e-03
         4.6124924905e-03
         4.6394229386e-03
         4.6664680563e-03
         4.6936281914e-03
         4.7209036925e-03
         4.7482949093e-03
         4.7758021919e-03
         4.8034258916e-03
         4.8311663604e-03
         4.8590239510e-03
         4.8869990172e-03
         4.9150919134e-03
         4.9433029950e-03
         4.9716326183e-03
         5.0000811402e-03
         5.0286489186e-03
         5.0573363123e-03
         5.0861436809e-03
         5.1150713848e-03
         5.1441197853e-03
         5.1732892446e-03
         5.2025801257e-03
         5.2319927925e-03
         5.2615276098e-03
         5.2911849430e-03
         5.3209651588e-03
         5.3508686244e-03
         5.3808957081e-03
         5.4110467790e-03
         5.4413222069e-03
         5.4717223629e-03
         5.5022476185e-03
         5.5328983463e-03
         5.5636749199e-03
         5.5945777136e-03
         5.6256071027e-03
         5.6567634633e-03
         5.6880471723e-03
         5.7194586078e-03
         5.7509981485e-03
         5.7826661742e-03
         5.8144630654e-03
         5.8463892036e-03
         5.8784449713e-03
         5.9106307517e-03
         5.9429469291e-03
         5.9753938885e-03
         6.0079720161e-03
         6.0406816987e-03
         6.0735233242e-03
         6.1064972813e-03
         6.1396039597e-03
         6.1728437501e-03
         6.2062170439e-03
         6.2397242337e-03
         6.2733657126e-03
         6.3071418752e-03
         6.3410531165e-03
         6.3750998328e-03
         6.4092824210e-03
         6.4436012793e-03
         6.4780568067e-03
         6.5126494029e-03
         6.5473794688e-03
         6.5822474063e-03
         6.6172536180e-03
         6.6523985076e-03
         6.6876824798e-03
         6.7231059401e-03
         6.7586692950e-03
         6.7943729520e-03
         6.8302173196e-03
         6.8662028071e-03
         6.9023298249e-03
         6.9385987844e-03
         6.9750100978e-03
         7.0115641784e-03
         7.0482614403e-03
         7.0851022989e-03
         7.1220871702e-03
         7.1592164715e-03
         7.1964906207e-03
         7.2339100371e-03
         7.2714751408e-03
         7.3091863527e-03
         7.3470440950e-03
         7.3850487907e-03
         7.4232008638e-03
         7.4615007393e-03
         7.4999488434e-03
         7.5385456029e-03
         7.5772914460e-03
         7.6161868017e-03
         7.6552320999e-03
         7.6944277717e-03
         7.7337742491e-03
         7.7732719653e-03
         7.8129213541e-03
         7.8527228508e-03
         7.8926768915e-03
         7.9327839131e-03
         7.9730443539e-03
         8.0134586531e-03
         8.0540272507e-03
         8.0947505880e-03
         8.1356291073e-03
         8.1766632517e-03
         8.2178534657e-03
         8.2592001945e-03
         8.3007038845e-03
         8.3423649832e-03
         8.3841839390e-03
         8.4261612014e-03
         8.4682972210e-03
         8.5105924493e-03
         8.5530473391e-03
         8.5956623440e-03
         8.6384379189e-03
         8.6813745194e-03
         8.7244726026e-03
         8.7677326264e-03
         8.8111550497e-03
         8.8547403327e-03
         8.8984889366e-03
         8.9424013235e-03
         8.9864779568e-03
         9.0307193008e-03
         9.0751258210e-03
         9.1196979839e-03
         9.1644362572e-03
         9.2093411096e-03
         9.2544130109e-03
         9.2996524319e-03
         9.3450598447e-03
         9.3906357223e-03
         9.4363805389e-03
         9.4822947698e-03
         9.5283788914e-03
         9.5746333812e-03
         9.6210587177e-03
         9.6676553806e-03
         9.7144238509e-03
         9.7613646103e-03
         9.8084781420e-03
         9.8557649301e-03
         9.9032254600e-03
         9.9508602179e-03
         9.9986696916e-03
         1.0046654370e-02
         1.0094814742e-02
         1.0143151299e-02
         1.0191664533e-02
         1.0240354938e-02
         1.0289223008e-02
         1.0338269237e-02
         1.0387494124e-02
         1.0436898165e-02
         1.0486481860e-02
         1.0536245708e-02
         1.0586190212e-02
         1.0636315872e-02
         1.0686623194e-02
         1.0737112681e-02
         1.0787784840e-02
         1.0838640178e-02
         1.0889679202e-02
         1.0940902423e-02
         1.0992310350e-02
         1.1043903497e-02
         1.1095682374e-02
         1.1147647498e-02
         1.1199799382e-02
         1.1252138545e-02
         1.1304665502e-02
         1.1357380773e-02
         1.1410284879e-02
         1.1463378340e-02
         1.1516661680e-02
         1.1570135421e-02
         1.1623800088e-02
         1.1677656209e-02
         1.1731704309e-02
         1.1785944918e-02
         1.1840378565e-02
         1.1895005782e-02
         1.1949827099e-02
         1.2004843052e-02
         1.2060054175e-02
         1.2115461003e-02
         1.2171064073e-02
         1.2226863924e-02
         1.2282861096e-02
         1.2339056129e-02
         1.2395449565e-02
         1.2452041948e-02
         1.2508833822e-02
         1.2565825734e-02
         1.2623018229e-02
         1.2680411857e-02
         1.2738007166e-02
         1.2795804709e-02
         1.2853805036e-02
         1.2912008702e-02
         1.2970416260e-02
         1.3029028268e-02
         1.3087845282e-02
         1.3146867860e-02
         1.3206096562e-02
         1.3265531950e-02
         1.3325174585e-02
         1.3385025032e-02
         1.3445083854e-02
         1.3505351619e-02
         1.3565828894e-02
         1.3626516248e-02
         1.3687414250e-02
         1.3748523472e-02
         1.3809844487e-02
         1.3871377869e-02
         1.3933124193e-02
         1.3995084036e-02
         1.4057257976e-02
         1.4119646592e-02
         1.4182250464e-02
         1.4245070176e-02
         1.4308106309e-02
         1.4371359449e-02
         1.4434830181e-02
         1.4498519093e-02
         1.4562426774e-02
         1.4626553812e-02
         1.4690900801e-02
         1.4755468332e-02
         1.4820257000e-02
         1.4885267399e-02
         1.4950500127e-02
         1.5015955781e-02
         1.5081634962e-02
         1.5147538270e-02
         1.5213666307e-02
         1.5280019676e-02
         1.5346598984e-02
         1.5413404835e-02
         1.5480437839e-02
         1.5547698603e-02
         1.5615187739e-02
         1.5682905858e-02
         1.5750853574e-02
         1.5819031501e-02
         1.5887440255e-02
         1.5956080455e-02
         1.6024952718e-02
         1.6094057665e-02
         1.6163395918e-02
         1.6232968100e-02
         1.6302774836e-02
         1.6372816751e-02
         1.6443094473e-02
         1.6513608630e-02
         1.6584359854e-02
         1.6655348775e-02
         1.6726576027e-02
         1.6798042245e-02
         1.6869748064e-02
         1.6941694121e-02
         1.7013881057e-02
         1.7086309511e-02
         1.7158980124e-02
         1.7231893541e-02
         1.7305050406e-02
         1.7378451365e-02
         1.7452097066e-02
         1.7525988157e-02
         1.7600125291e-02
         1.7674509118e-02
         1.7749140292e-02
         1.7824019469e-02
         1.7899147305e-02
         1.7974524457e-02
         1.8050151586e-02
         1.8126029352e-02
         1.8202158419e-02
         1.8278539449e-02
         1.8355173109e-02
         1.8432060065e-02
         1.8509200987e-02
         1.8586596544e-02
         1.8664247407e-02
         1.8742154251e-02
         1.8820317749e-02
         1.8898738577e-02
         1.8977417415e-02
         1.9056354939e-02
         1.9135551832e-02
         1.9215008776e-02
         1.9294726455e-02
         1.9374705553e-02
         1.9454946758e-02
         1.9535450759e-02
         1.9616218245e-02
         1.9697249908e-02
         1.9778546442e-02
         1.9860108540e-02
         1.9941936900e-02
         2.0024032220e-02
         2.0106395198e-02
         2.0189026536e-02
         2.0271926936e-02
         2.0355097103e-02
         2.0438537743e-02
         2.0522249563e-02
         2.0606233271e-02
         2.0690489580e-02
         2.0775019200e-02
         2.0859822846e-02
         2.0944901233e-02
         2.1030255078e-02
         2.1115885101e-02
         2.1201792020e-02
         2.1287976558e-02
         2.1374439440e-02
         2.1461181389e-02
         2.1548203132e-02
         2.1635505399e-02
         2.1723088920e-02
         2.1810954425e-02
         2.1899102649e-02
         2.1987534326e-02
         2.2076250193e-02
         2.2165250989e-02
         2.2254537454e-02
         2.2344110329e-02
         2.2433970358e-02
         2.2524118286e-02
         2.2614554859e-02
         2.2705280826e-02
         2.2796296937e-02
         2.2887603944e-02
         2.2979202600e-02
         2.3071093660e-02
         2.3163277882e-02
         2.3255756024e-02
         2.3348528846e-02
         2.3441597111e-02
         2.3534961581e-02
         2.3628623023e-02
         2.3722582203e-02
         2.3816839890e-02
         2.3911396856e-02
         2.4006253871e-02
         2.4101411712e-02
         2.4196871152e-02
         2.4292632970e-02
         2.4388697945e-02
         2.4485066859e-02
         2.4581740493e-02
         2.4678719633e-02
         2.4776005064e-02
         2.4873597576e-02
         2.4971497957e-02
         2.5069706999e-02
         2.5168225497e-02
         2.5267054244e-02
         2.5366194039e-02
         2.5465645679e-02
         2.5565409966e-02
         2.5665487701e-02
         2.5765879689e-02
         2.5866586736e-02
         2.5967609650e-02
         2.6068949240e-02
         2.6170606317e-02
         2.6272581695e-02
         2.6374876189e-02
         2.6477490615e-02
         2.6580425793e-02
         2.6683682543e-02
         2.6787261686e-02
         2.6891164049e-02
         2.6995390456e-02
         2.7099941735e-02
         2.7204818717e-02
         2.7310022232e-02
         2.7415553114e-02
         2.7521412200e-02
         2.7627600325e-02
         2.7734118329e-02
         2.7840967052e-02
         2.7948147339e-02
         2.8055660033e-02
         2.8163505981e-02
         2.8271686032e-02
         2.8380201035e-02
         2.8489051844e-02
         2.8598239313e-02
         2.8707764297e-02
         2.8817627655e-02
         2.8927830247e-02
         2.9038372934e-02
         2.9149256581e-02
         2.9260482053e-02
         2.9372050218e-02
         2.9483961945e-02
         2.9596218106e-02
         2.9708819575e-02
         2.9821767226e-02
         2.9935061938e-02
         3.0048704590e-02
         3.0162696063e-02
         3.0277037240e-02
         3.0391729006e-02
         3.0506772250e-02
         3.0622167860e-02
         3.0737916727e-02
         3.0854019745e-02
         3.0970477808e-02
         3.1087291814e-02
         3.1204462662e-02
         3.1321991254e-02
